src/assets/icons/filters/categories/toolbox.svg

<svg width="48" height="49" viewBox="0 0 48 49" fill="none" xmlns="http://www.w3.org/2000/svg">
<path fill-rule="evenodd" clip-rule="evenodd" d="M6.14309 48.0668H5.94272C4.24036 48.0668 2.73677 47.2653 1.53454 46.0631C-0.667946 43.6587 -0.469177 39.8532 1.93528 37.4487L22.572 16.8136C21.1694 12.2051 22.3716 7.19579 25.7779 3.79107C28.9839 0.585125 33.7912 -0.716491 38.1978 0.384753C38.9993 0.585125 39.6004 1.18624 39.9017 1.98773C40.1021 2.78921 39.9017 3.69009 39.3006 4.2912L33.7912 9.80063L34.5927 13.6077L38.1994 14.3082L43.7088 8.79877C44.3083 8.19765 45.2108 7.99728 46.0123 8.19765C46.8138 8.39802 47.4149 9.10013 47.6152 9.90161C48.7165 14.3098 47.4149 19.1187 44.2089 22.3231C40.8026 25.7294 35.7933 26.93 31.1864 25.529L10.4519 46.3645C9.35065 47.4657 7.74767 48.0668 6.1447 48.0668H6.14309Z" fill="#CFD8DC"/>
<path d="M6.14309 48.0668H5.94272C4.24036 48.0668 2.73677 47.2653 1.53454 46.0631C-0.667946 43.6587 -0.469177 39.8532 1.93528 37.4487L22.572 16.8136C21.1694 12.2051 22.3716 7.19579 25.7779 3.79107C28.9839 0.585125 33.7912 -0.716491 38.1978 0.384753C38.9993 0.585125 39.6004 1.18624 39.9017 1.98773C40.1021 2.78921 39.9017 3.69009 39.3006 4.2912L33.7912 9.80063L34.5927 13.6077L38.1994 14.3082L43.7088 8.79877C44.3083 8.19765 45.2108 7.99728 46.0123 8.19765C46.8138 8.39802 47.4149 9.10013 47.6152 9.90161C48.7165 14.3098 47.4149 19.1187 44.2089 22.3231C40.8026 25.7294 35.7933 26.93 31.1864 25.529L10.4519 46.3645C9.35065 47.4657 7.74767 48.0668 6.1447 48.0668H6.14309ZM35.0928 3.08897C32.488 3.08897 29.8831 4.09083 27.9804 5.99516C26.6 7.36704 25.6549 9.1155 25.2631 11.0218C24.8714 12.9281 25.0504 14.9076 25.7779 16.7127L26.1787 17.6151L4.13937 39.6528C2.93714 40.8551 2.73677 42.8588 3.83962 44.061C4.44073 44.6605 5.24222 45.0613 6.04371 45.0613C6.94458 45.0613 7.74607 44.7615 8.34718 44.1604L30.4843 22.0233L31.3867 22.4241C35.0928 23.8251 39.3006 23.0236 42.1058 20.2184C43.1788 19.1401 43.9897 17.8297 44.4761 16.3884C44.9625 14.9471 45.1113 13.4133 44.911 11.9053L40.2015 16.6133C39.6004 17.2144 38.6995 17.5141 37.898 17.3138L33.7912 16.5123C33.2978 16.4109 32.845 16.1671 32.4888 15.8109C32.1327 15.4548 31.8888 15.0019 31.7875 14.5086L30.986 10.4017C30.7856 9.60025 31.087 8.69938 31.6881 8.09827L36.497 3.28934C35.8943 3.08897 35.4936 3.08897 35.0928 3.08897V3.08897Z" fill="#253238"/>
</svg>

<svg width="48" height="49" viewBox="0 0 48 49" fill="none" xmlns="http://www.w3.org/2000/svg"><path fill-rule="evenodd" clip-rule="evenodd" d="M6.143 48.067h-.2c-1.703 0-3.206-.802-4.408-2.004-2.203-2.404-2.004-6.21.4-8.614l20.637-20.635c-1.403-4.609-.2-9.618 3.206-13.023C28.984.585 33.79-.716 38.198.385c.801.2 1.402.801 1.704 1.603.2.801 0 1.702-.601 2.303l-5.51 5.51.802 3.807 3.606.7 5.51-5.51c.6-.6 1.502-.8 2.303-.6.802.2 1.403.902 1.603 1.704 1.102 4.408-.2 9.217-3.406 12.421-3.406 3.406-8.416 4.607-13.023 3.206L10.452 46.364c-1.101 1.102-2.704 1.703-4.307 1.703h-.002z" fill="#CFD8DC"/><path d="M6.143 48.067h-.2c-1.703 0-3.206-.802-4.408-2.004-2.203-2.404-2.004-6.21.4-8.614l20.637-20.635c-1.403-4.609-.2-9.618 3.206-13.023C28.984.585 33.79-.716 38.198.385c.801.2 1.402.801 1.704 1.603.2.801 0 1.702-.601 2.303l-5.51 5.51.802 3.807 3.606.7 5.51-5.51c.6-.6 1.502-.8 2.303-.6.802.2 1.403.902 1.603 1.704 1.102 4.408-.2 9.217-3.406 12.421-3.406 3.406-8.416 4.607-13.023 3.206L10.452 46.364c-1.101 1.102-2.704 1.703-4.307 1.703h-.002zm28.95-44.978c-2.605 0-5.21 1.002-7.113 2.906a9.895 9.895 0 00-2.202 10.718l.4.902L4.14 39.653c-1.202 1.202-1.402 3.206-.3 4.408.602.6 1.403 1 2.205 1 .9 0 1.702-.3 2.303-.9l22.137-22.138.903.401c3.706 1.401 7.914.6 10.719-2.206a9.932 9.932 0 002.805-8.313l-4.71 4.708c-.6.601-1.502.901-2.303.7l-4.107-.8a2.575 2.575 0 01-2.003-2.004l-.802-4.107c-.2-.802.101-1.703.702-2.304l4.809-4.809c-.603-.2-1.003-.2-1.404-.2z" fill="#253238"/></svg>
